X:1
T:A Sinner Forgiven
T:A Sinner Forgiven
T:Isaac Baker Woodbury (1819-1858)
T:Jeremiah J. Callahan, 1851
T:Public Domain Courtesy of the Cyber Hymnal™
T:Public Domain Courtesy of the Cyber Hymnal™
C:Isaac Baker Woodbury (1819-1858)
Z:Public Domain
Z:Courtesy of the Cyber Hymnal™
%%score ( 1 2 ) ( 3 4 )
L:1/8
Q:1/4=110
M:2/4
K:Eb
V:1 treble 
V:2 treble 
V:3 bass 
V:4 bass 
V:1
 ([EG][EG]) | [EG]2 [EG][EG] | [EG]2 [EG][EG] | ([EG][FA]) [GB][Ac] | [GB]3 [GB] | [GB]2 [GB][GB] | %6
w: 1.~To~the *|hall of the|feast came the|sin- * ful and|fair; She|heard in the|
w: 2.~The *|frown and the|mur- mur went|round * thro’ them|all, That|one so un-|
w: 3.~She *|heard but the|Sav- ior; she|spoke * but with|sighs; She|dared not look|
w: 4.~In~the *|sky, af- ter|tem- pest, as|shin- * eth the|bow, In|glance of the|
 [GB] [Ac]2 [GB] | ([GB][FA]) [FA][EG] | [DF]3 [EG] | [EG]2 [EG][EG] | [EG]2 [EG][EG] | %11
w: ci- ty that|Je- * sus was|there; Un-|heed- ing the|splen- dor that|
w: hal- lowed should|tread * in that|hall; And|some said the|poor would be|
w: up to the|heaven * of His|eyes; And|hot tears gushed|forth at each|
w: sun- shine, as|melt- * eth the|snow, He|looked on that|lost one: “her|
 ([EG][FA]) [GB][Ac] | [GB]3 ([GB]/[GB]/) | [Ge]2 [Ad][Ac] | ([Ac][GB]) [EG][GB] | %15
w: blazed * on the|board, She *|si- lent- ly|knelt * at the|
w: ob- * jects more|meet, As~the *|wealth of her|per- * fume she|
w: heave * of her|breast, As~her *|lips to His|san- * dals were|
w: sins * were for-|giv’n,” And~the *|sin- ner went|forth * in the|
 ([GB][FA]) [EG][FA] | [EG]3 ([GB]/[GB]/) | [Ee]2 [Ed][Ec] | (cB) [EG][GB] | ([GB][FA]) [DF]>E | %20
w: feet * of the|Lord, She *|si- lent- ly|knelt * at the|feet * of the|
w: shower’d * on His|feet, As~the *|wealth of her|per- * fume she|shower’d * on His|
w: throb- * bing- ly|pressed; As~her *|lips to His|san- * dals were|throb- * bing- ly|
w: beau- * ty of|Heav’n; And~the *|sin- ner went|forth * in the|beau- * ty of|
 !fermata!E2 |] %21
w: Lord.|
w: feet.|
w: pressed.|
w: Heav’n.|
V:2
 x2 | x4 | x4 | x4 | x4 | x4 | x4 | x4 | x4 | x4 | x4 | x4 | x4 | x4 | x4 | x4 | x4 | x4 | E2 x2 | %19
 x7/2 E/ | E2 |] %21
V:3
 ([E,B,][E,B,]) | [E,B,]2 [E,B,][E,B,] | [E,B,]2 [E,B,][E,B,] | [E,B,]2 [E,E][E,E] | [E,E]3 E, | %5
 E,2 E,E, | E, E,2 E, | D,2 D,E, | B,,3 [E,B,] | [E,B,]2 [E,B,][E,B,] | [E,B,]2 [E,B,][E,B,] | %11
 [E,B,]2 [E,E][E,E] | [E,E]3 ([E,B,]/[E,B,]/) | [E,B,]2 [A,C][A,E] | [E,E]2 [E,B,][E,B,] | %15
 [B,,B,]2 [B,,B,][B,,B,] | [E,B,]3 ([E,B,]/[E,B,]/) | [G,B,]2 [A,B,][A,,A,] | (A,G,) [E,B,][E,B,] | %19
 [B,,B,]2 [B,,A,]>[E,G,] | !fermata![E,G,]2 |] %21
V:4
 x2 | x4 | x4 | x4 | x4 | x4 | x4 | x4 | x4 | x4 | x4 | x4 | x4 | x4 | x4 | x4 | x4 | x4 | E,2 x2 | %19
 x4 | x2 |] %21

